lib/svgs/zendesk.svg

<?xml version="1.0" encoding="UTF-8"?>
<svg width="16px" height="16px" viewBox="0 0 16 16" version="1.1" xmlns="http://www.w3.org/2000/svg" xmlns:xlink="http://www.w3.org/1999/xlink">
    <!-- Generator: sketchtool 51.3 (57544) - http://www.bohemiancoding.com/sketch -->
    <title>brand/zendesk</title>
    <desc>Created with sketchtool.</desc>
    <defs></defs>
    <g id="Icons" stroke="none" stroke-width="1" fill="none" fill-rule="evenodd">
        <g id="Web" transform="translate(-387.000000, -1038.000000)" fill="#000000">
            <g id="brand/zendesk" transform="translate(387.000000, 1038.000000)">
                <path d="M7.9688,11.3254023 C7.59376,11.1373069 6.65632,10.6038611 5.81248,9.8195143 C5.4688,10.4470881 5.31248,11.1686293 5.31248,11.8588481 C5.31248,12.4862613 5.43744,13.082352 5.68752,13.6784427 C6.18752,14.7764961 7.06256,15.5921654 8.06256,16 C9.0312,15.5608429 9.87504,14.7764961 10.34368,13.7097652 C9.21872,13.239125 8.37504,12.3608108 7.9688,11.3254023 L7.9688,11.3254023 L7.9688,11.3254023 M11.93744,10.0077704 C11.43744,10.0077704 10.93744,9.91364234 10.5312,9.75686936 C9.78128,10.4470881 8.9688,10.9175677 8.56256,11.1373069 C9.15632,12.0784266 10.09376,12.7999679 11.24992,13.082352 C11.62496,13.17648 11.9688,13.2078025 12.31248,13.2078025 C13.12496,13.2078025 13.87504,12.988224 14.5312,12.6431949 C14.62496,12.2666827 14.65632,11.8901706 14.65632,11.5136584 C14.65632,10.7921172 14.5,10.070576 14.15632,9.41167967 C13.43744,9.8195143 12.68752,10.0077704 11.93744,10.0077704 L11.93744,10.0077704 L11.93744,10.0077704 M13.40624,3.92157335 C13.34368,3.92157335 13.31248,3.89009025 13.24992,3.89009025 L13.24992,3.92157335 C13.09376,4.79988756 12.71872,5.61571746 12.18752,6.21164754 C12.21872,6.36858115 12.21872,6.52551476 12.21872,6.71377084 C12.21872,7.74901866 11.68752,8.65881597 11.0312,9.3803572 C11.21872,9.41167967 11.40624,9.41167967 11.59376,9.41167967 C12.56256,9.41167967 13.5312,9.12945617 14.34368,8.47055989 C15.28128,7.74901866 15.84368,6.68228775 16,5.61571746 C15.37504,4.79988756 14.43744,4.20379685 13.40624,3.92157335 L13.40624,3.92157335 L13.40624,3.92157335 M9.4688,4.42353603 C9.62496,4.39205293 9.81248,4.36073046 10,4.36073046 L10.06256,4.36073046 C10.75008,4.36073046 11.43744,4.70592015 11.84368,5.3646558 C12.24992,4.70592015 12.4688,3.92157335 12.4688,3.07442099 C12.4688,1.88223956 12,0.784186168 11.24992,0 L11.18752,0 C10.12496,0 9.21872,0.376351534 8.37504,1.12937586 C9.18752,2.0078507 9.4688,3.07442099 9.4688,4.17247437 L9.4688,4.42353603 L9.4688,4.42353603 L9.4688,4.42353603 M6.5312,4.51766407 C7.21872,4.54898654 7.87504,4.8940156 8.24992,5.61571746 C8.43744,5.23920529 8.71872,4.95682117 9.0312,4.79988756 L9.0312,4.67443705 C9.0312,3.41961068 8.5312,2.19594615 7.5312,1.31763194 C6.68752,0.564607616 5.62496,0.219578552 4.59376,0.219578552 C4.5312,0.219578552 4.4688,0.219578552 4.43744,0.188095453 C3.71872,1.00392535 3.28128,2.03917317 3.28128,3.1998715 L3.28128,3.2313546 L3.40624,3.2313546 C4.62496,3.2313546 5.75008,3.73331727 6.5312,4.51766407 L6.5312,4.51766407 L6.5312,4.51766407 M4.21872,6.83922136 L4.21872,6.68228775 C4.21872,5.45878384 4.9688,4.70592015 5.81248,4.48618097 C5.15632,4.10982943 4.40624,3.89009025 3.59376,3.89009025 C3.34368,3.89009025 3.06256,3.92157335 2.81248,3.95289582 C1.62496,4.17247437 0.65632,4.83137066 0,5.7098455 C0.18752,6.77641579 0.75008,7.78034113 1.65632,8.50188236 C2.31248,7.59208505 3.24992,7.02747744 4.21872,6.83922136 L4.21872,6.83922136 L4.21872,6.83922136 M5.4688,9.31755163 C4.93744,8.78426648 4.5,8.12553083 4.34368,7.3725065 C3.34368,7.74901866 2.4688,8.47055989 1.93744,9.47448524 C1.59376,10.1333815 1.43744,10.8549227 1.43744,11.5451415 C1.43744,11.9529761 1.5,12.3921332 1.59376,12.7373229 C2.21872,13.1136745 2.9688,13.3019305 3.71872,13.3019305 C4.06256,13.3019305 4.43744,13.2706081 4.78128,13.17648 C4.68752,12.7686454 4.62496,12.3608108 4.62496,11.9529761 C4.62496,11.0116957 4.93744,10.1018984 5.4688,9.31755163 L5.4688,9.31755163 L5.4688,9.31755163" id="Shape"></path>
            </g>
        </g>
    </g>
</svg>

<svg xmlns="http://www.w3.org/2000/svg" viewBox="0 0 16 16">
    <path d="M7.969 11.325A10.058 10.058 0 0 1 5.812 9.82a4.28 4.28 0 0 0-.5 2.039c0 .627.125 1.223.376 1.82A4.516 4.516 0 0 0 8.063 16a4.517 4.517 0 0 0 2.28-2.29 4.327 4.327 0 0 1-2.374-2.385m3.968-1.317c-.5 0-1-.094-1.406-.251a9.99 9.99 0 0 1-1.968 1.38 4.41 4.41 0 0 0 3.75 2.07c.812 0 1.562-.219 2.218-.564.094-.376.125-.753.125-1.13 0-.72-.156-1.442-.5-2.101a4.45 4.45 0 0 1-2.219.596m1.47-6.086c-.063 0-.095-.032-.157-.032v.032a4.71 4.71 0 0 1-1.062 2.29c.03.157.03.314.03.502 0 1.035-.53 1.945-1.187 2.666.188.032.375.032.563.032A4.435 4.435 0 0 0 16 5.616a4.908 4.908 0 0 0-2.594-1.694m-3.937.502c.156-.032.343-.063.531-.063h.063a2.09 2.09 0 0 1 1.78 1.004 4.335 4.335 0 0 0 .626-2.29c0-1.193-.469-2.29-1.22-3.075h-.061a4.069 4.069 0 0 0-2.813 1.13c.813.878 1.094 1.944 1.094 3.042v.252m-2.938.094A1.987 1.987 0 0 1 8.25 5.616c.187-.377.469-.66.781-.816v-.126A4.424 4.424 0 0 0 4.594.22c-.063 0-.125 0-.157-.032A4.514 4.514 0 0 0 3.281 3.2v.031h.125c1.219 0 2.344.502 3.125 1.287M4.22 6.839v-.157c0-1.223.75-1.976 1.593-2.196a4.43 4.43 0 0 0-3-.533A4.518 4.518 0 0 0 0 5.71a4.571 4.571 0 0 0 1.656 2.792A4.152 4.152 0 0 1 4.22 6.839m1.25 2.479a3.954 3.954 0 0 1-1.125-1.945 4.504 4.504 0 0 0-2.407 2.101 4.493 4.493 0 0 0-.343 3.263 4.145 4.145 0 0 0 2.125.565 4.1 4.1 0 0 0 1.062-.126 5.47 5.47 0 0 1-.156-1.223c0-.941.312-1.851.844-2.635"/>
</svg>
